X: 5
T: O'Mahoney's
R: reel
M: 4/4
L: 1/8
K: Gmaj
DB,~B,2 G,B,A,B,|G,B,~B,2 DEGA|BGdG eGdG|^GAcA FDEF|GEED EDB,A,|G,2B,G, DG,B,D|EC~C2 ADFA|1 BdAF GFGE:|2 BdAF G2dc|||:~B3A BdBA|GB~B2 dB~B2|gBdg bgdB|cAA^G ADFA|~B3A BdBA|GB~B2 dGBd|c2Bd cedc|1 BcBA G2dc:|2 BcBA G2Bc|||:dD~D2 B,DGA|Bg~g2 edcB|cAA^G A=GFE|(3DED ^CE D2B=c|dD~D2 B,DGA|Bg~g2 edcB|cAA^G A=GFE|1 DB,CA, G,2Bc:|2 DB,CA, G,2DC|||:B,D~D2 B,DG,B,|DG,B,D edBd|c2Bc AcGE|DAFD ^CD=CD|B,D~D2 B,DG,B,|DG,B,D edBd|c2Bc AcGA|1 FDEF GFGD:|2 FDEF GFGE||


Tune 2716	Setting 15949

